-----BEGIN PGP SIGNATURE-----

iQIzBAABCgAdFiEEIGJVTKKPl/NcYbpZ+wQZ5iSA84oFAmrGNegACgkQ+wQZ5iSA
84q04RAAjxPmQ36wgyjpUEn+w+GZGETbRcySANHBil2gssSQyGMw9jYyI4RGD5Hg
cLrKt9U5TgmoamAQ+mCTZYnx/3dY08grsFPsEtbGPXvdxMfa7Ysyz6E+MW5Lxy2J
PWy7JbHMOvZkekfLKwmwC6iBCGVttXb9NLIcFtkmq/yqFuNVhakQ+ePxKhTHD1F1
tAzxGUm0ZaE6bvs4nBurwS3FlLAZAH9H7iSmcL3SDylP/fmV/64sJfAxxkd08p42
l2j/Tsiuk32oVz29xp7rIpk/QF9N3+GCHKF1RxFCsK9tYp4yR2jHMN/hM57u+PtS
WhhrkLC6FbgC1HXUgPvuBtMnykXRyDx6E8pr51LkkwPSPYJbI0tqSoZB5SradgRo
ItR+8pX5CRuXR7t3IBEODj1m6UYhNslZyzSDUT+b6pF78o3zRc+pf6Y4iO5j4Vhh
+RtGe21BaSCQ5eBbUOaJ87X31W4aaCUhmW0kw35EqGJmqEAoIyVmTp7YdzIqau3J
/7AawknVd8Q67n1Df0CCco/AOhVYfu6mlyCdLJN+71o/cuOVKYEhASnJ8A5gwxh1
rw9pgN6REWrZV0jEpQ0its6HjE1hgsPl6Dpd3GR/NizZQD++TD5h9N1DkVXX+hvj
t/gusclx7yvR3G0gR4GLUoUSYisW6X3d44/vQRNbt3oooYSEGYs=
=mLFp
-----END PGP SIGNATURE-----
